com.heiman/driver/HS1RC-EF/assets/icon.svg

<svg height="960" viewBox="0 0 960 960" width="960" xmlns="http://www.w3.org/2000/svg"><path d="m480 2.18081181h3.641371c.603982 0 1.206511 0 1.807592.01206067l3.589164.02150297 3.554685.03234216c1.768766.01889075 3.5247.04186844 5.26795.06896641l3.469628.05969954c.575467.01086883 1.149535.02219795 1.72221.03398858l3.419377.07629184c.567124.01364163 1.132866.02774725 1.697231.04231809l3.369712.09301756c.558879.01643667 1.116393.03334102 1.672545.0507143l3.320633.1098767c1.652197.05776179 3.292246.11976616 4.920294.18604645l3.240139.13827171 3.208398.14973349c2.660511.12957011 5.288231.27114133 7.883836.42486807l3.099356.19031662 3.068788.20204521 3.03848.2138331 3.008434.22568028c.498916.03860394.996591.07770398 1.49303.11730136l1.485617.12028539 3.249937.27582656 1.509556.13417972 2.995877.27801259c29.804576 2.84464352 54.997795 7.62807892 76.871205 14.64404842 42.305416 13.5696038 73.123736 35.9656281 94.891136 69.4600199 20.39753 31.3865165 32.880617 72.4091135 40.037732 128.1065735l.215254 1.692299.36597 2.956985.179542 1.488849.352244 2.998982.343185 3.028117.168219 1.525269.329733 3.073526.161534 1.548484.316447 3.120982.307681 3.153755.150577 1.589453.148412 1.597987.290368 3.222032.141975 1.624274.139847 1.633262.273349 3.293949.329881 4.170027.3169 4.23012.123157 1.709272.240188 3.448696.232081 3.489657.224046 3.531528.216086 3.574308.208199 3.617999.249267 4.585323.237201 4.656786.091534 1.883123.177381 3.801855.169859 3.850094.162411 3.899241.155036 3.9493.147734 4.000266.140506 4.052144.133351 4.104931.126268 4.158626.11926 4.213233.112324 4.268749.105461 4.325173.098672 4.382509.091957 4.440754.085313 4.499908.078744 4.559971.072248 4.620946.065824 4.682829.059475 4.745622.077466 7.238159.043921 4.906584.054478 7.483867.028823 5.073232.022913 5.141483.023448 7.842184.01056 8.000866v11.678139l-.006878 16.931227-.0191 19.981818-.040781 22.339762-.039357 13.958067-.050097 13.253195-.061698 12.585363-.074161 11.954571-.042022 5.752314-.094469 11.077833-.080395 7.953161-.088979 7.666055-.097927 7.394575-.107237 7.138722-.076844 4.624723-.08125 4.522585-.130375 6.602498-.092739 4.287498-.097523 4.201564-.102415 4.120262-.107414 4.04359-.11252 3.971547-.178591 5.832368-.125758 3.811697-.131242 3.755859-.136832 3.704652-.142531 3.658074-.148338 3.616127-.154251 3.578809-.160273 3.546122-.251936 5.268021-.175797 3.48466-.182196 3.468177-.188702 3.456325-.195316 3.449102-.202036 3.44651-.315893 5.175033-.25234 3.963521c-4.786612 73.518838-14.43046 124.375715-32.196813 162.911206-19.654906 42.631791-49.817536 70.700898-93.966523 87.462326-39.934809 15.161491-91.841483 21.528339-166.278111 21.656065h-4.52524c-74.440988-.127737-126.408505-6.495086-166.426513-21.650181-44.244201-16.755583-74.5288-44.811624-94.318934-87.41639-17.913594-38.564898-27.68773-89.475736-32.576751-162.936405l-.146661-2.232994-.226124-3.543219-.325522-5.311897-.208071-3.546009-.201046-3.555163-.194136-3.568912-.187337-3.587255-.180652-3.61019-.17408-3.637721-.167621-3.669844-.161274-3.706561-.155041-3.747873-.14892-3.793777-.142912-3.844276-.137018-3.899369-.131235-3.959055-.125567-4.023335-.177968-6.165576-.111888-4.204133-.106615-4.28449-.101453-4.369443-.142751-6.723498-.089045-4.60192-.08428-4.70295-.079627-4.808575-.075087-4.918792-.104366-7.594894-.064232-5.214434-.088611-8.059891-.054082-5.538787-.073916-8.567953-.065606-8.893463-.057679-9.234476-.050131-9.590994-.05576-13.369371-.043925-14.067493-.032991-14.802364-.022962-15.573986-.018953-20.608563v-25.419343l.024958-7.794079.02012-5.11206.026018-5.04586.031985-4.980511.038023-4.916011.044132-4.852364.050309-4.789567.087203-7.068467.066063-4.636298.111162-6.842553.125853-6.710833.09218-4.40213.048601-2.179856.102264-4.317827.109075-4.262688.146027-5.25212.156916-5.168957.133463-4.076407.14059-4.025098.147786-3.97464.155053-3.925033.16239-3.876277.169796-3.828372.087698-1.896488.181039-3.75811.093359-1.861835.192439-3.689764.200127-3.645262.207885-3.601612.215713-3.558813.280757-4.389626.293235-4.325745.243666-3.415717.124882-1.693192.255908-3.357582.264157-3.319888.135194-1.646075.276663-3.264944.285089-3.229379.145725-1.601617.297858-3.177625.306458-3.144187.315128-3.111599.32387-3.079862.332681-3.048977.169667-1.513172.346029-3.004244.176381-1.491284.178635-1.484201.364073-2.947579.185455-1.46359c7.223527-56.528324 19.888265-98.094293 40.643199-129.8142228 21.897163-33.4656065 52.832637-55.8478033 95.23234-69.4124637 20.36579-6.5154946 43.590565-11.10555138 70.704994-14.00485933l2.973417-.30959232 3.004575-.29624582 3.199567-.29775256c14.477135-1.30684114 30.025381-2.16837142 46.787338-2.61706127l1.867441-.04815714 3.765026-.0861603c7.570413-.15882151 15.383702-.23680695 23.452385-.23680695zm0 39.99999999c-124.565323 0-184.849455 19.2863095-217.515541 69.2101462-10.163091 15.532332-18.187796 34.75103-24.389769 58.683213l-.558804 2.188666c-1.015299 4.036466-1.980232 8.204726-2.896261 12.509535l-.494811 2.361649-.485164 2.388905c-.080059.400431-.159719.802006-.23898 1.204726l-.470791 2.43011-.461276 2.457794c-.836982 4.531439-1.626255 9.203317-2.369281 14.020392l-.201498 1.317351-.434826 2.920683c-.400705 2.742319-.787069 5.530513-1.159347 8.365415l-.276572 2.134948-.268233 2.126659-.436077 3.581385-.339055 2.899308-.330408 2.930613-.161981 1.477308-.31756 2.979142-.385026 3.770991-.371895 3.824812-.14511 1.545361-.284011 3.117757-.275786 3.154504-.267625 3.192088-.259531 3.230508-.12675 1.629923-.247509 3.289708-.239577 3.330221-.116834 1.680564-.227798 3.392559-.220029 3.435166-.212322 3.478607-.103292 1.755856-.249925 4.438758-.238164 4.510233-.182148 3.660747-.174767 3.708374-.084636 1.872309-.163816 3.781385-.156598 3.831105-.149443 3.881661-.142354 3.933056-.13533 3.985286-.12837 4.038354-.121476 4.092259-.114646 4.147001-.159305 6.324972-.097856 4.287518-.091253 4.345188-.084716 4.403697-.078242 4.463042-.071835 4.523224-.09588 6.89951-.056099 4.677342-.049919 4.740453-.063431 7.230846-.03475 4.901895-.028797 4.967937-.032175 7.577562-.014197 5.136701-.010579 7.834634v24.007365l.028411 23.886689.035286 18.575231.028797 10.595368.034957 10.201157.041474 9.821767.066058 12.531148.03788 6.033509.085992 11.624847.073866 8.349029.082299 8.048692.059728 5.206261.097151 7.58107.106541 7.320261.11629 7.074272.083121 4.586842.087719 4.488493.140434 6.557945.15138 6.361364.107178 4.139019.170421 6.066671.120205 3.95628.125601 3.890871.131105 3.829853.136714 3.773227.142429 3.720993.148253 3.673151.15418 3.6297.160216 3.590642.166357 3.555975.172605 3.525699.178959 3.499817.185419 3.478325.191987 3.461226.098489 1.725573.202036 3.443811.315899 5.155614.219318 3.436746c4.546422 70.148733 13.518753 117.395084 29.084476 150.905417 29.691832 63.921425 87.77408 85.917572 226.730806 85.917572 138.879934 0 196.718282-21.958677 226.181917-85.865752 15.284944-33.153276 24.11699-79.760291 28.610908-148.828945l.241424-3.793752.208034-3.383011.201312-3.380489.194692-3.382532.188179-3.389139.18177-3.400309.260867-5.131393.247034-5.182198.157179-3.490632.224766-5.301105.14266-3.584165.137036-3.629565.131515-3.67953.126101-3.734058.12079-3.79315.115583-3.856807.110483-3.925028.105485-3.997811.100593-4.07516.141945-6.267752.08882-4.288498.084294-4.38182.079873-4.479707.111747-6.91308.069276-4.74439.096344-7.331499.087572-7.603088.079154-7.89008.093053-10.993163.060883-8.619631.069975-12.021806.057938-12.659807.036058-9.935507.038887-13.864164.035017-18.37287.024242-23.670818.006834-28.395091-.010146-7.784316-.013591-5.103337-.019128-5.035357-.024728-4.968219-.030393-4.901925-.03612-4.836473-.065062-7.133833-.05072-4.676534-.087262-6.897876-.06572-4.521864-.071832-4.461472-.078008-4.401923-.084247-4.343217-.13821-6.406597-.152609-6.279252-.109844-4.116825-.116404-4.062336-.123026-4.00869-.129714-3.955885-.136464-3.903926-.14328-3.852808-.150157-3.802535-.157101-3.753104-.164107-3.704516-.215084-4.563604-.226256-4.490651-.093658-1.776202-.192772-3.518598-.200098-3.474227-.207488-3.430699-.26985-4.228446-.281621-4.163397-.233856-3.28499-.241534-3.245255-.123666-1.607991-.25317-3.187236-.261007-3.14961-.268909-3.112827-.137437-1.542883-.28088-3.059234-.288942-3.024559-.297066-2.990728-.1516-1.48294-.309374-2.941561-.157789-1.458832-.159869-1.451006-.326007-2.878957-.33442-2.84892-.342896-2.819726-.368945-2.927328c-6.45598-50.28054-17.285117-85.886819-33.911546-111.470587-32.430215-49.9017022-92.464806-69.1579982-216.956627-69.1579982zm22.843173 824.0516602c8.836556 0 16 7.163444 16 16v1.594096c0 8.836556-7.163444 16-16 16h-46.736162c-8.836556 0-16-7.163444-16-16v-1.594096c0-8.836556 7.163444-16 16-16zm-22.843173-729.123616c118.58328 0 214.714022 96.130742 214.714022 214.714022s-96.130742 214.714022-214.714022 214.714022-214.714022-96.130742-214.714022-214.714022 96.130742-214.714022 214.714022-214.714022zm0 20c-107.537585 0-194.714022 87.176437-194.714022 194.714022s87.176437 194.714022 194.714022 194.714022 194.714022-87.176437 194.714022-194.714022-87.176437-194.714022-194.714022-194.714022z"/></svg>

<?xml version="1.0" encoding="UTF-8"?>
<svg width="960px" height="960px" viewBox="0 0 960 960" version="1.1" xmlns="http://www.w3.org/2000/svg" xmlns:xlink="http://www.w3.org/1999/xlink">
    <title>com.heiman/driver/HS1RC-EF/assets/icon</title>
    <g id="com.heiman/driver/HS1RC-EF/assets/icon" stroke="none" stroke-width="1" fill="none" fill-rule="evenodd">
        <path d="M480,2.18081181 L483.641371,2.18081181 C484.245353,2.18081181 484.847882,2.18081181 485.448963,2.19287248 L489.038127,2.21437545 L489.038127,2.21437545 L492.592812,2.24671761 C494.361578,2.26560836 496.117512,2.28858605 497.860762,2.31568402 L501.33039,2.37538356 C501.905857,2.38625239 502.479925,2.39758151 503.0526,2.40937214 L506.471977,2.48566398 C507.039101,2.49930561 507.604843,2.51341123 508.169208,2.52798207 L511.53892,2.62099963 C512.097799,2.6374363 512.655313,2.65434065 513.211465,2.67171393 L516.532098,2.78159063 C518.184295,2.83935242 519.824344,2.90135679 521.452392,2.96763708 L524.692531,3.10590879 L524.692531,3.10590879 L527.900929,3.25564228 C530.56144,3.38521239 533.18916,3.52678361 535.784765,3.68051035 L538.884121,3.87082697 L538.884121,3.87082697 L541.952909,4.07287218 L541.952909,4.07287218 L544.991389,4.28670528 L544.991389,4.28670528 L547.999823,4.51238556 C548.498739,4.5509895 548.996414,4.59008954 549.492853,4.62968692 L550.97847,4.74997231 L554.228407,5.02579887 L555.737963,5.15997859 L555.737963,5.15997859 L558.73384,5.43799118 C588.538416,8.2826347 613.731635,13.0660701 635.605045,20.0820396 C677.910461,33.6516434 708.728781,56.0476677 730.496181,89.5420595 C750.893711,120.928576 763.376798,161.951173 770.533913,217.648633 L770.749167,219.340932 L771.115137,222.297917 L771.294679,223.786766 L771.646923,226.785748 L771.990108,229.813865 L772.158327,231.339134 L772.48806,234.41266 L772.649594,235.961144 L772.966041,239.082126 L773.273722,242.235881 L773.424299,243.825334 L773.424299,243.825334 L773.572711,245.423321 L773.863079,248.645353 L774.005054,250.269627 L774.005054,250.269627 L774.144901,251.902889 L774.41825,255.196838 L774.748131,259.366865 L774.748131,259.366865 L775.065031,263.596985 L775.188188,265.306257 L775.428376,268.754953 L775.660457,272.24461 L775.884503,275.776138 L776.100589,279.350446 L776.308788,282.968445 L776.558055,287.553768 L776.558055,287.553768 L776.795256,292.210554 L776.88679,294.093677 L777.064171,297.895532 L777.23403,301.745626 L777.396441,305.644867 L777.551477,309.594167 L777.699211,313.594433 L777.839717,317.646577 L777.973068,321.751508 L778.099336,325.910134 L778.218596,330.123367 L778.33092,334.392116 L778.436381,338.717289 L778.535053,343.099798 L778.62701,347.540552 L778.712323,352.04046 L778.791067,356.600431 L778.863315,361.221377 L778.929139,365.904206 L778.988614,370.649828 L779.06608,377.887987 L779.110001,382.794571 L779.164479,390.278438 L779.193302,395.35167 L779.216215,400.493153 L779.239663,408.335337 L779.250223,416.336203 L779.250223,428.014342 L779.243345,444.945569 L779.224245,464.927387 L779.183464,487.267149 L779.144107,501.225216 L779.09401,514.478411 L779.032312,527.063774 L778.958151,539.018345 L778.916129,544.770659 L778.82166,555.848492 L778.741265,563.801653 L778.652286,571.467708 L778.554359,578.862283 L778.447122,586.001005 L778.370278,590.625728 L778.289028,595.148313 L778.158653,601.750811 L778.065914,606.038309 L777.968391,610.239873 L777.865976,614.360135 L777.758562,618.403725 L777.646042,622.375272 L777.467451,628.20764 L777.341693,632.019337 L777.210451,635.775196 L777.073619,639.479848 L776.931088,643.137922 L776.78275,646.754049 L776.628499,650.332858 L776.468226,653.87898 L776.21629,659.147001 L776.040493,662.631661 L775.858297,666.099838 L775.669595,669.556163 L775.474279,673.005265 L775.272243,676.451775 L774.95635,681.626808 L774.70401,685.590329 C769.917398,759.109167 760.27355,809.966044 742.507197,848.501535 C722.852291,891.133326 692.689661,919.202433 648.540674,935.963861 C608.605865,951.125352 556.699191,957.4922 482.262563,957.619926 L477.737323,957.619926 C403.296335,957.492189 351.328818,951.12484 311.31081,935.969745 C267.066609,919.214162 236.78201,891.158121 216.991876,848.553355 C199.078282,809.988457 189.304146,759.077619 184.415125,685.61695 L184.268464,683.383956 L184.04234,679.840737 L183.716818,674.52884 L183.508747,670.982831 L183.307701,667.427668 L183.113565,663.858756 L182.926228,660.271501 L182.745576,656.661311 L182.571496,653.02359 L182.403875,649.353746 L182.242601,645.647185 L182.08756,641.899312 L181.93864,638.105535 L181.795728,634.261259 L181.65871,630.36189 L181.527475,626.402835 L181.401908,622.3795 L181.22394,616.213924 L181.112052,612.009791 L181.005437,607.725301 L180.903984,603.355858 L180.761233,596.63236 L180.672188,592.03044 L180.587908,587.32749 L180.508281,582.518915 L180.433194,577.600123 L180.328828,570.005229 L180.264596,564.790795 L180.175985,556.730904 L180.121903,551.192117 L180.047987,542.624164 L179.982381,533.730701 L179.924702,524.496225 L179.874571,514.905231 L179.818811,501.53586 L179.774886,487.468367 L179.741895,472.666003 L179.718933,457.092017 L179.69998,436.483454 L179.69998,411.064111 L179.724938,403.270032 L179.745058,398.157972 L179.771076,393.112112 L179.803061,388.131601 L179.841084,383.21559 L179.885216,378.363226 L179.935525,373.573659 L180.022728,366.505192 L180.088791,361.868894 L180.199953,355.026341 L180.325806,348.315508 L180.417986,343.913378 L180.466587,341.733522 L180.568851,337.415695 L180.677926,333.153007 L180.823953,327.900887 L180.823953,327.900887 L180.980869,322.73193 L181.114332,318.655523 L181.254922,314.630425 L181.402708,310.655785 L181.557761,306.730752 L181.720151,302.854475 L181.889947,299.026103 L181.977645,297.129615 L182.158684,293.371505 L182.252043,291.50967 L182.444482,287.819906 L182.644609,284.174644 L182.852494,280.573032 L183.068207,277.014219 L183.348964,272.624593 L183.348964,272.624593 L183.642199,268.298848 L183.885865,264.883131 L184.010747,263.189939 L184.266655,259.832357 L184.530812,256.512469 L184.666006,254.866394 L184.942669,251.60145 L185.227758,248.372071 L185.373483,246.770454 L185.671341,243.592829 L185.977799,240.448642 L186.292927,237.337043 L186.616797,234.257181 L186.949478,231.208204 L187.119145,229.695032 L187.465174,226.690788 L187.641555,225.199504 L187.641555,225.199504 L187.82019,223.715303 L188.184263,220.767724 L188.369718,219.304134 C195.593245,162.77581 208.257983,121.209841 229.012917,89.4899112 C250.91008,56.0243047 281.845554,33.6421079 324.245257,20.0774475 C344.611047,13.5619529 367.835822,8.97189612 394.950251,6.07258817 L397.923668,5.76299585 L397.923668,5.76299585 L400.928243,5.46675003 L404.12781,5.16899747 C418.604945,3.86215633 434.153191,3.00062605 450.915148,2.5519362 L452.782589,2.50377906 L456.547615,2.41761876 C464.118028,2.25879725 471.931317,2.18081181 480,2.18081181 Z M480,42.1808118 C355.434677,42.1808118 295.150545,61.4671213 262.484459,111.390958 C252.321368,126.92329 244.296663,146.141988 238.09469,170.074171 L237.535886,172.262837 C236.520587,176.299303 235.555654,180.467563 234.639625,184.772372 L234.144814,187.134021 L234.144814,187.134021 L233.65965,189.522926 C233.579591,189.923357 233.499931,190.324932 233.42067,190.727652 L232.949879,193.157762 L232.949879,193.157762 L232.488603,195.615556 C231.651621,200.146995 230.862348,204.818873 230.119322,209.635948 L229.917824,210.953299 L229.482998,213.873982 C229.082293,216.616301 228.695929,219.404495 228.323651,222.239397 L228.047079,224.374345 L227.778846,226.501004 L227.778846,226.501004 L227.342769,230.082389 L227.003714,232.981697 L226.673306,235.91231 L226.511325,237.389618 L226.193765,240.36876 L225.808739,244.139751 L225.808739,244.139751 L225.436844,247.964563 L225.291734,249.509924 L225.007723,252.627681 L224.731937,255.782185 L224.464312,258.974273 L224.204781,262.204781 L224.078031,263.834704 L223.830522,267.124412 L223.590945,270.454633 L223.474111,272.135197 L223.246313,275.527756 L223.026284,278.962922 L222.813962,282.441529 L222.71067,284.197385 L222.460745,288.636143 L222.460745,288.636143 L222.222581,293.146376 L222.040433,296.807123 L221.865666,300.515497 L221.78103,302.387806 L221.617214,306.169191 L221.460616,310.000296 L221.311173,313.881957 L221.168819,317.815013 L221.033489,321.800299 L220.905119,325.838653 L220.783643,329.930912 L220.668997,334.077913 L220.509692,340.402885 L220.411836,344.690403 L220.320583,349.035591 L220.235867,353.439288 L220.157625,357.90233 L220.08579,362.425554 L219.98991,369.325064 L219.933811,374.002406 L219.883892,378.742859 L219.820461,385.973705 L219.785711,390.8756 L219.756914,395.843537 L219.724739,403.421099 L219.710542,408.5578 L219.699963,416.392434 L219.699963,440.399799 L219.728374,464.286488 L219.76366,482.861719 L219.792457,493.457087 L219.827414,503.658244 L219.868888,513.480011 L219.934946,526.011159 L219.972826,532.044668 L220.058818,543.669515 L220.132684,552.018544 L220.214983,560.067236 L220.274711,565.273497 L220.371862,572.854567 L220.478403,580.174828 L220.594693,587.2491 L220.677814,591.835942 L220.765533,596.324435 L220.905967,602.88238 L221.057347,609.243744 L221.164525,613.382763 L221.334946,619.449434 L221.455151,623.405714 L221.580752,627.296585 L221.711857,631.126438 L221.848571,634.899665 L221.991,638.620658 L222.139253,642.293809 L222.293433,645.923509 L222.453649,649.514151 L222.620006,653.070126 L222.792611,656.595825 L222.97157,660.095642 L223.156989,663.573967 L223.348976,667.035193 L223.447465,668.760766 L223.649501,672.204577 L223.9654,677.360191 L224.184718,680.796937 C228.73114,750.94567 237.703471,798.192021 253.269194,831.702354 C282.961026,895.623779 341.043274,917.619926 480,917.619926 C618.879934,917.619926 676.718282,895.661249 706.181917,831.754174 C721.466861,798.600898 730.298907,751.993883 734.792825,682.925229 L735.034249,679.131477 L735.242283,675.748466 L735.443595,672.367977 L735.638287,668.985445 L735.826466,665.596306 L736.008236,662.195997 L736.269103,657.064604 L736.516137,651.882406 L736.673316,648.391774 L736.898082,643.090669 L737.040742,639.506504 L737.177778,635.876939 L737.309293,632.197409 L737.435394,628.463351 L737.556184,624.670201 L737.671767,620.813394 L737.78225,616.888366 L737.887735,612.890555 L737.988328,608.815395 L738.130273,602.547643 L738.219093,598.259145 L738.303387,593.877325 L738.38326,589.397618 L738.495007,582.484538 L738.564283,577.740148 L738.660627,570.408649 L738.748199,562.805561 L738.827353,554.915481 L738.920406,543.922318 L738.981289,535.302687 L739.051264,523.280881 L739.109202,510.621074 L739.14526,500.685567 L739.184147,486.821403 L739.219164,468.448533 L739.243406,444.777715 L739.25024,416.382624 L739.240094,408.598308 L739.226503,403.494971 L739.207375,398.459614 L739.182647,393.491395 L739.152254,388.58947 L739.116134,383.752997 L739.051072,376.619164 L739.000352,371.94263 L738.91309,365.044754 L738.84737,360.52289 L738.775538,356.061418 L738.69753,351.659495 L738.613283,347.316278 L738.475073,340.909681 L738.322464,334.630429 L738.21262,330.513604 L738.096216,326.451268 L737.97319,322.442578 L737.843476,318.486693 L737.707012,314.582767 L737.563732,310.729959 L737.413575,306.927424 L737.256474,303.17432 L737.092367,299.469804 L736.877283,294.9062 L736.877283,294.9062 L736.651027,290.415549 L736.557369,288.639347 L736.364597,285.120749 L736.164499,281.646522 L735.957011,278.215823 L735.687161,273.987377 L735.687161,273.987377 L735.40554,269.82398 L735.171684,266.53899 L734.93015,263.293735 L734.806484,261.685744 L734.553314,258.498508 L734.292307,255.348898 L734.023398,252.236071 L733.885961,250.693188 L733.605081,247.633954 L733.316139,244.609395 L733.019073,241.618667 L732.867473,240.135727 L732.558099,237.194166 L732.40031,235.735334 L732.40031,235.735334 L732.240441,234.284328 L731.914434,231.405371 L731.580014,228.556451 L731.237118,225.736725 L730.868173,222.809397 C724.412193,172.528857 713.583056,136.922578 696.956627,111.33881 C664.526412,61.4371078 604.491821,42.1808118 480,42.1808118 Z M502.843173,866.232472 C511.679729,866.232472 518.843173,873.395916 518.843173,882.232472 L518.843173,883.826568 C518.843173,892.663124 511.679729,899.826568 502.843173,899.826568 L456.107011,899.826568 C447.270455,899.826568 440.107011,892.663124 440.107011,883.826568 L440.107011,882.232472 C440.107011,873.395916 447.270455,866.232472 456.107011,866.232472 L502.843173,866.232472 Z M480,137.108856 C598.58328,137.108856 694.714022,233.239598 694.714022,351.822878 C694.714022,470.406158 598.58328,566.5369 480,566.5369 C361.41672,566.5369 265.285978,470.406158 265.285978,351.822878 C265.285978,233.239598 361.41672,137.108856 480,137.108856 Z M480,157.108856 C372.462415,157.108856 285.285978,244.285293 285.285978,351.822878 C285.285978,459.360463 372.462415,546.5369 480,546.5369 C587.537585,546.5369 674.714022,459.360463 674.714022,351.822878 C674.714022,244.285293 587.537585,157.108856 480,157.108856 Z" id="Shape" fill="#000000" fill-rule="nonzero"></path>
    </g>
</svg>
